src/assets/compendia/icons/tokens-core/faction-andorian-rank-8-token.svg

<svg xmlns="http://www.w3.org/2000/svg" xml:space="preserve" style="fill-rule:evenodd;clip-rule:evenodd;stroke-linecap:round;stroke-miterlimit:1.5" viewBox="0 0 256 256"><path d="M0 0h256v256H0z" style="fill:none"/><g><circle cx="128" cy="128" r="128"/><path d="M128 0c70.645 0 128 57.355 128 128s-57.355 128-128 128S0 198.645 0 128 57.355 0 128 0m0 8C61.77 8 8 61.77 8 128s53.77 120 120 120 120-53.77 120-120S194.23 8 128 8" style="fill:#57afdb"/><path d="M895 150c184.89 0 335 150.108 335 335s-150.11 335-335 335c-184.892 0-335-150.108-335-335s150.108-335 335-335m317.75 387.964.24-.324C1189.86 622.517 1112.17 685 1020 685c-110.383 0-200-89.617-200-200s89.617-200 200-200c92.17 0 169.86 62.483 192.99 147.36-16.36-22.628-42.97-37.36-72.99-37.36-49.67 0-90 40.328-90 90s40.33 90 90 90c29.88 0 56.38-14.595 72.75-37.036m99.11-34.693C1320.31 544.195 1356.59 575 1400 575c49.48 0 89.68-40.014 90-89.418-.32 71.481-58.44 129.418-130 129.418-71.75 0-130-58.251-130-130s58.25-130 130-130c71.56 0 129.68 57.937 130 129.418-.32-49.404-40.52-89.418-90-89.418-43.41 0-79.69 30.805-88.14 71.729A19.9 19.9 0 0 1 1320 465c5.97 0 11.33 2.622 15 6.777 3.67-4.155 9.03-6.777 15-6.777s11.33 2.622 15 6.777c3.67-4.155 9.03-6.777 15-6.777 1.73 0 3.4.219 5 .631 6.83-12.299 19.95-20.631 35-20.631s28.17 8.332 35 20.631c1.6-.412 3.27-.631 5-.631 11.04 0 20 8.962 20 20s-8.96 20-20 20c-1.73 0-3.4-.219-5-.631-6.83 12.299-19.95 20.631-35 20.631s-28.17-8.332-35-20.631c-1.6.412-3.27.631-5 .631-5.97 0-11.33-2.622-15-6.777-3.67 4.155-9.03 6.777-15 6.777s-11.33-2.622-15-6.777c-3.67 4.155-9.03 6.777-15 6.777-2.9 0-5.65-.618-8.14-1.729M470 395c49.672 0 90 40.328 90 90s-40.328 90-90 90-90-40.328-90-90 40.328-90 90-90m333.994 70.4A20 20 0 0 0 800 465c-11.038 0-20 8.962-20 20s8.962 20 20 20a20 20 0 0 0 3.994-.4C797.699 513.89 787.058 520 775 520c-13.535 0-25.287-7.7-31.109-18.956C737.423 540.143 703.42 570 662.5 570c-39.559 0-72.652-27.903-80.655-65.085A19.96 19.96 0 0 0 595 498.223c3.666 4.155 9.029 6.777 15 6.777 11.038 0 20-8.962 20-20s-8.962-20-20-20c-5.971 0-11.334 2.622-15 6.777a19.97 19.97 0 0 0-11.954-6.546C592.77 430.503 624.68 405 662.5 405c39.65 0 72.805 28.032 80.711 65.346C748.76 458.339 760.914 450 775 450c12.058 0 22.699 6.11 28.994 15.4m409.546 71.468-.07.102zm.72-1.026-.13.177zm.94-1.405-.26.396zm.28-.422-.19.292zm.62-.978-.26.42.54-.859zm1.14-1.848-.27.454c.18-.302.36-.605.55-.911zm1.11-1.895-.03.054-.51.888zm5.11-10.58.01-.008zl-.43 1.05-.05.123-.45 1.035-.11.26-.15.329-.06.144-.35.768-.25.544-.44.919-.29.606-.28.566-.3.598-.29.576-.31.582-.31.584-.52.963.42-.776.1-.187.1-.183.21-.401.21-.402.1-.18.08-.168.21-.408.22-.427.08-.171.08-.15.2-.416.22-.455.07-.151.07-.138.24-.508.13-.273.1-.213.15-.331.17-.358.18-.41.03-.075.03-.069.03-.058.12-.271.1-.231.01-.029.02-.029.25-.582.18-.424.03-.081.02-.042.03-.066zM860 445c22.077 0 40 17.923 40 40s-17.923 40-40 40-40-17.923-40-40 17.923-40 40-40m82.85 25.153C948.752 455.418 963.169 445 980 445c22.08 0 40 17.923 40 40s-17.92 40-40 40c-16.831 0-31.248-10.418-37.15-25.153a14.95 14.95 0 0 1-7.85-3.67A14.94 14.94 0 0 1 925 500c-8.279 0-15-6.721-15-15s6.721-15 15-15a14.94 14.94 0 0 1 10 3.823 14.95 14.95 0 0 1 7.85-3.67M1265 450c19.32 0 35 15.683 35 35s-15.68 35-35 35-35-15.683-35-35 15.68-35 35-35m-773.339 24.722c4.305-12.906 16.493-22.222 30.839-22.222 17.937 0 32.5 14.563 32.5 32.5s-14.563 32.5-32.5 32.5c-14.346 0-26.534-9.316-30.839-22.222-3.182 4.375-8.342 7.222-14.161 7.222-9.659 0-17.5-7.841-17.5-17.5s7.841-17.5 17.5-17.5c5.819 0 10.979 2.847 14.161 7.222m733.779 38.626c-.12.345-.23.688-.35 1.031l-.36 1.026c.24-.685.48-1.369.71-2.057m.35-1.088.16-.496-.18.557c-.1.331-.21.662-.32.991zM1420 457.5c15.18 0 27.5 12.322 27.5 27.5s-12.32 27.5-27.5 27.5-27.5-12.322-27.5-27.5 12.32-27.5 27.5-27.5m-193.89 53.751-.15.478zm.32-1.11-.01.065-.3.994zM1170 460c13.8 0 25 11.202 25 25s-11.2 25-25 25-25-11.202-25-25 11.2-25 25-25m-740 0c13.798 0 25 11.202 25 25s-11.202 25-25 25-25-11.202-25-25 11.202-25 25-25m796.72 49.132-.13.456zm.16-.575-.14.511c.1-.347.19-.694.28-1.043zm.56-2.156-.13.516c.08-.346.17-.692.25-1.039zM695 471.777c3.666-4.155 9.029-6.777 15-6.777 11.038 0 20 8.962 20 20s-8.962 20-20 20c-5.971 0-11.334-2.622-15-6.777-3.666 4.155-9.029 6.777-15 6.777-11.038 0-20-8.962-20-20s8.962-20 20-20c5.971 0 11.334 2.622 15 6.777m532.94 32.447-.12.523c.08-.345.16-.69.23-1.036zm.22-1.028-.09.412zm.23-1.164-.1.527zm.29-1.607-.08.442zm1.32-15.643c-.12-8.178-6.79-14.782-15-14.782-8.28 0-15 6.721-15 15s6.72 15 15 15c8.21 0 14.88-6.604 15-14.782v.312-1.06zM1095 470c8.28 0 15 6.721 15 15s-6.72 15-15 15-15-6.721-15-15 6.72-15 15-15m-30 0c8.28 0 15 6.721 15 15s-6.72 15-15 15-15-6.721-15-15 6.72-15 15-15m-180 0c8.279 0 15 6.721 15 15s-6.721 15-15 15-15-6.721-15-15 6.721-15 15-15m343.95 28.789-.06.382zm.24-1.696-.05.397zm.16-1.2-.07.516c.05-.345.09-.69.13-1.037zm.29-2.777-.04.472zm.21-2.809-.03.364zm.14-6.938v.382zm-.02-.679.01.527zm-.03-1.066.01.367zm-.03-.574.02.396zm-.05-1.183.02.413zm-.16-2.281.03.392zm-.05-.541.03.368zm-.05-.633.04.472zm-.06-.568.05.521zm-.06-.524.04.381zm-.13-1.213.06.521c-.04-.346-.08-.692-.13-1.037zm-.14-1.04.05.379zm-.07-.557.05.397zm-.25-1.681.06.382zm-.5-2.838.09.485zm-.32-1.599.09.412zm-.13-.616.11.513c-.07-.347-.15-.692-.23-1.036zm-.36-1.585.1.44zm-.14-.592.12.523c-.08-.347-.17-.692-.25-1.039zm-.41-1.602.12.481zm-.16-.577-.13-.488.28 1.043zm-.28-1.008.13.456zm-.32-1.124.02.069c.1.329.19.659.29.99zm-.31-1.017.15.478zm-.35-1.092.02.056c.11.332.21.666.32 1.001zm-.88-2.584.36 1.026c.12.343.23.686.35 1.031-.23-.689-.47-1.375-.71-2.057m-5.5-12.3-.36-.656.2.364zl.2.372.08.159.15.271.56 1.087.06.113.04.078.18.367.19.372.05.112.06.115.12.257.31.63.16.331.1.204.1.233.12.244.16.364.14.297.08.181.09.199.16.354.16.355.08.201.08.189.16.354.14.34.08.18.08.188.13.337.16.381.15.364.02.051.01.032.05.12.12.316.24.604.13.351-.37-.955-.17-.436-.03-.083-.31-.745-.21-.525-.22-.52-.24-.543-.24-.556-.25-.553-.22-.478-.28-.608-.2-.437-.47-.961-.18-.372-.24-.484-.22-.445-.77-1.471zm-1.17-2.091.03.045.51.912zm-.82-1.393.28.457c-.18-.305-.37-.609-.55-.911zm-.54-.886.25.394zm-.28-.455.23.371zm-.32-.507.28.439-.54-.859zm-1.7-2.595.14.205zm-1.2-1.706.07.088z" style="fill:#57afdb" transform="translate(-15.198 53.72)scale(.15315)"/><path d="M1916.84 1455.5c3.71.33 7.44.5 11.16.5s7.45-.17 11.16-.5l-1.68-19.73c-3.15.29-6.32.43-9.48.43s-6.33-.14-9.48-.43z" style="fill:none;stroke:#57afdb;stroke-width:8.66px" transform="matrix(.9375 0 0 .9091 -1679.5 -1075.64)"/><path d="M1894.87 1451.5a124.2 124.2 0 0 0 66.26 0l-4.97-19.12c-9.18 2.53-18.65 3.82-28.16 3.82s-18.97-1.29-28.16-3.82z" style="fill:none;stroke:#57afdb;stroke-width:8.66px" transform="matrix(.9375 0 0 .9091 -1679.5 -1075.64)"/><path d="M1873.9 1443.63c16.95 8.15 35.41 12.37 54.1 12.37s37.15-4.22 54.1-12.37l-8.12-17.94c-14.4 6.92-30.09 10.51-45.98 10.51s-31.58-3.59-45.98-10.51z" style="fill:none;stroke:#57afdb;stroke-width:8.66px" transform="matrix(.9375 0 0 .9091 -1679.5 -1075.64)"/></g></svg>

<?xml version="1.0" encoding="UTF-8" standalone="no"?>
<!DOCTYPE svg PUBLIC "-//W3C//DTD SVG 1.1//EN" "http://www.w3.org/Graphics/SVG/1.1/DTD/svg11.dtd">
<svg width="100%" height="100%" viewBox="0 0 256 256" version="1.1" xmlns="http://www.w3.org/2000/svg" xmlns:xlink="http://www.w3.org/1999/xlink" xml:space="preserve" xmlns:serif="http://www.serif.com/" style="fill-rule:evenodd;clip-rule:evenodd;stroke-linecap:round;stroke-miterlimit:1.5;">
    <g transform="matrix(1,0,0,1,-4200,-3300)">
        <g transform="matrix(1,0,0,1,4200,3300)">
            <rect id="faction-andorian-rank-8-token" x="0" y="0" width="256" height="256" style="fill:none;"/>
            <g id="faction-andorian-rank-8-token1" serif:id="faction-andorian-rank-8-token">
                <circle cx="128" cy="128" r="128"/>
                <path d="M128,0C198.645,0 256,57.355 256,128C256,198.645 198.645,256 128,256C57.355,256 0,198.645 0,128C0,57.355 57.355,0 128,0ZM128,8C61.77,8 8,61.77 8,128C8,194.23 61.77,248 128,248C194.23,248 248,194.23 248,128C248,61.77 194.23,8 128,8Z" style="fill:rgb(87,175,219);"/>
                <g transform="matrix(0.153153,0,0,0.153153,-15.1983,53.7206)">
                    <g id="Andorian">
                        <path id="Andorian1" serif:id="Andorian" d="M895,150C1079.89,150 1230,300.108 1230,485C1230,669.892 1079.89,820 895,820C710.108,820 560,669.892 560,485C560,300.108 710.108,150 895,150ZM1212.75,537.964L1212.99,537.64C1189.86,622.517 1112.17,685 1020,685C909.617,685 820,595.383 820,485C820,374.617 909.617,285 1020,285C1112.17,285 1189.86,347.483 1212.99,432.36C1196.63,409.732 1170.02,395 1140,395C1090.33,395 1050,435.328 1050,485C1050,534.672 1090.33,575 1140,575C1169.88,575 1196.38,560.405 1212.75,537.964ZM1311.86,503.271C1320.31,544.195 1356.59,575 1400,575C1449.48,575 1489.68,534.986 1490,485.582C1489.68,557.063 1431.56,615 1360,615C1288.25,615 1230,556.749 1230,485C1230,413.251 1288.25,355 1360,355C1431.56,355 1489.68,412.937 1490,484.418C1489.68,435.014 1449.48,395 1400,395C1356.59,395 1320.31,425.805 1311.86,466.729C1314.35,465.618 1317.1,465 1320,465C1325.97,465 1331.33,467.622 1335,471.777C1338.67,467.622 1344.03,465 1350,465C1355.97,465 1361.33,467.622 1365,471.777C1368.67,467.622 1374.03,465 1380,465C1381.73,465 1383.4,465.219 1385,465.631C1391.83,453.332 1404.95,445 1420,445C1435.05,445 1448.17,453.332 1455,465.631C1456.6,465.219 1458.27,465 1460,465C1471.04,465 1480,473.962 1480,485C1480,496.038 1471.04,505 1460,505C1458.27,505 1456.6,504.781 1455,504.369C1448.17,516.668 1435.05,525 1420,525C1404.95,525 1391.83,516.668 1385,504.369C1383.4,504.781 1381.73,505 1380,505C1374.03,505 1368.67,502.378 1365,498.223C1361.33,502.378 1355.97,505 1350,505C1344.03,505 1338.67,502.378 1335,498.223C1331.33,502.378 1325.97,505 1320,505C1317.1,505 1314.35,504.382 1311.86,503.271ZM470,395C519.672,395 560,435.328 560,485C560,534.672 519.672,575 470,575C420.328,575 380,534.672 380,485C380,435.328 420.328,395 470,395ZM803.994,465.4C802.703,465.138 801.368,465 800,465C788.962,465 780,473.962 780,485C780,496.038 788.962,505 800,505C801.368,505 802.703,504.862 803.994,504.6C797.699,513.89 787.058,520 775,520C761.465,520 749.713,512.3 743.891,501.044C737.423,540.143 703.42,570 662.5,570C622.941,570 589.848,542.097 581.845,504.915C587.07,504.437 591.716,501.945 595,498.223C598.666,502.378 604.029,505 610,505C621.038,505 630,496.038 630,485C630,473.962 621.038,465 610,465C604.029,465 598.666,467.622 595,471.777C591.969,468.342 587.78,465.955 583.046,465.231C592.77,430.503 624.68,405 662.5,405C702.15,405 735.305,433.032 743.211,470.346C748.76,458.339 760.914,450 775,450C787.058,450 797.699,456.11 803.994,465.4ZM1213.54,536.868L1213.47,536.97L1213.54,536.868ZM1214.26,535.842L1214.13,536.019L1214.26,535.842ZM1215.2,534.437L1214.94,534.833L1215.2,534.437ZM1215.48,534.015L1215.29,534.307L1215.48,534.015ZM1216.1,533.037L1215.84,533.457C1216.02,533.172 1216.2,532.885 1216.38,532.598L1216.1,533.037ZM1217.24,531.189L1216.97,531.643C1217.15,531.341 1217.33,531.038 1217.52,530.732L1217.24,531.189ZM1218.35,529.294L1218.32,529.348C1218.15,529.645 1217.98,529.941 1217.81,530.236L1218.35,529.294ZM1223.46,518.714L1223.47,518.706C1223.9,517.622 1224.32,516.527 1224.72,515.423C1224.32,516.528 1223.9,517.622 1223.47,518.706L1223.46,518.714L1223.03,519.764L1222.98,519.887L1222.53,520.922L1222.42,521.182L1222.27,521.511L1222.21,521.655L1221.86,522.423L1221.61,522.967L1221.17,523.886L1220.88,524.492L1220.6,525.058L1220.3,525.656L1220.01,526.232L1219.7,526.814L1219.39,527.398L1218.87,528.361L1219.29,527.585L1219.39,527.398L1219.49,527.215L1219.7,526.814L1219.91,526.412L1220.01,526.232L1220.09,526.064L1220.3,525.656L1220.52,525.229L1220.6,525.058L1220.68,524.908L1220.88,524.492L1221.1,524.037L1221.17,523.886L1221.24,523.748L1221.48,523.24L1221.61,522.967L1221.71,522.754L1221.86,522.423L1222.03,522.065L1222.21,521.655L1222.24,521.58L1222.27,521.511L1222.3,521.453L1222.42,521.182L1222.52,520.951L1222.53,520.922L1222.55,520.893L1222.8,520.311L1222.98,519.887L1223.01,519.806L1223.03,519.764L1223.06,519.698L1223.46,518.714ZM860,445C882.077,445 900,462.923 900,485C900,507.077 882.077,525 860,525C837.923,525 820,507.077 820,485C820,462.923 837.923,445 860,445ZM942.85,470.153C948.752,455.418 963.169,445 980,445C1002.08,445 1020,462.923 1020,485C1020,507.077 1002.08,525 980,525C963.169,525 948.752,514.582 942.85,499.847C939.858,499.417 937.15,498.102 935,496.177C932.346,498.554 928.841,500 925,500C916.721,500 910,493.279 910,485C910,476.721 916.721,470 925,470C928.841,470 932.346,471.446 935,473.823C937.15,471.898 939.858,470.583 942.85,470.153ZM1265,450C1284.32,450 1300,465.683 1300,485C1300,504.317 1284.32,520 1265,520C1245.68,520 1230,504.317 1230,485C1230,465.683 1245.68,450 1265,450ZM491.661,474.722C495.966,461.816 508.154,452.5 522.5,452.5C540.437,452.5 555,467.063 555,485C555,502.937 540.437,517.5 522.5,517.5C508.154,517.5 495.966,508.184 491.661,495.278C488.479,499.653 483.319,502.5 477.5,502.5C467.841,502.5 460,494.659 460,485C460,475.341 467.841,467.5 477.5,467.5C483.319,467.5 488.479,470.347 491.661,474.722ZM1225.44,513.348C1225.32,513.693 1225.21,514.036 1225.09,514.379C1224.97,514.722 1224.85,515.064 1224.73,515.405C1224.97,514.72 1225.21,514.036 1225.44,513.348ZM1225.79,512.26L1225.95,511.764L1225.77,512.321C1225.67,512.652 1225.56,512.983 1225.45,513.312L1225.79,512.26ZM1420,457.5C1435.18,457.5 1447.5,469.822 1447.5,485C1447.5,500.178 1435.18,512.5 1420,512.5C1404.82,512.5 1392.5,500.178 1392.5,485C1392.5,469.822 1404.82,457.5 1420,457.5ZM1226.11,511.251L1225.96,511.729L1226.11,511.251ZM1226.43,510.141L1226.42,510.206C1226.32,510.538 1226.22,510.869 1226.12,511.2L1226.43,510.141ZM1170,460C1183.8,460 1195,471.202 1195,485C1195,498.798 1183.8,510 1170,510C1156.2,510 1145,498.798 1145,485C1145,471.202 1156.2,460 1170,460ZM430,460C443.798,460 455,471.202 455,485C455,498.798 443.798,510 430,510C416.202,510 405,498.798 405,485C405,471.202 416.202,460 430,460ZM1226.72,509.132L1226.59,509.588L1226.72,509.132ZM1226.88,508.557L1226.74,509.068C1226.84,508.721 1226.93,508.374 1227.02,508.025L1226.88,508.557ZM1227.44,506.401L1227.31,506.917C1227.39,506.571 1227.48,506.225 1227.56,505.878L1227.44,506.401ZM695,471.777C698.666,467.622 704.029,465 710,465C721.038,465 730,473.962 730,485C730,496.038 721.038,505 710,505C704.029,505 698.666,502.378 695,498.223C691.334,502.378 685.971,505 680,505C668.962,505 660,496.038 660,485C660,473.962 668.962,465 680,465C685.971,465 691.334,467.622 695,471.777ZM1227.94,504.224L1227.82,504.747C1227.9,504.402 1227.98,504.057 1228.05,503.711L1227.94,504.224ZM1228.16,503.196L1228.07,503.608L1228.16,503.196ZM1228.39,502.032L1228.29,502.559L1228.39,502.032ZM1228.68,500.425L1228.6,500.867L1228.68,500.425ZM1230,484.782C1229.88,476.604 1223.21,470 1215,470C1206.72,470 1200,476.721 1200,485C1200,493.279 1206.72,500 1215,500C1223.21,500 1229.88,493.396 1230,485.218L1230,485.53L1230,485L1230,484.47L1230,484.782ZM1095,470C1103.28,470 1110,476.721 1110,485C1110,493.279 1103.28,500 1095,500C1086.72,500 1080,493.279 1080,485C1080,476.721 1086.72,470 1095,470ZM1065,470C1073.28,470 1080,476.721 1080,485C1080,493.279 1073.28,500 1065,500C1056.72,500 1050,493.279 1050,485C1050,476.721 1056.72,470 1065,470ZM885,470C893.279,470 900,476.721 900,485C900,493.279 893.279,500 885,500C876.721,500 870,493.279 870,485C870,476.721 876.721,470 885,470ZM1228.95,498.789L1228.89,499.171L1228.95,498.789ZM1229.19,497.093L1229.14,497.49L1229.19,497.093ZM1229.35,495.893L1229.28,496.409C1229.33,496.064 1229.37,495.719 1229.41,495.372L1229.35,495.893ZM1229.64,493.116L1229.6,493.588L1229.64,493.116ZM1229.85,490.307L1229.82,490.671L1229.85,490.307ZM1229.99,483.369L1229.99,483.751L1229.99,483.369ZM1229.97,482.69L1229.98,483.217L1229.97,482.69ZM1229.94,481.624L1229.95,481.991L1229.94,481.624ZM1229.91,481.05L1229.93,481.446L1229.91,481.05ZM1229.86,479.867L1229.88,480.28L1229.86,479.867ZM1229.7,477.586L1229.73,477.978L1229.7,477.586ZM1229.65,477.045L1229.68,477.413L1229.65,477.045ZM1229.6,476.412L1229.64,476.884L1229.6,476.412ZM1229.54,475.844L1229.59,476.365L1229.54,475.844ZM1229.48,475.32L1229.52,475.701L1229.48,475.32ZM1229.35,474.107L1229.41,474.628C1229.37,474.282 1229.33,473.936 1229.28,473.591L1229.35,474.107ZM1229.21,473.067L1229.26,473.446L1229.21,473.067ZM1229.14,472.51L1229.19,472.907L1229.14,472.51ZM1228.89,470.829L1228.95,471.211L1228.89,470.829ZM1228.39,467.991L1228.48,468.476L1228.39,467.991ZM1228.07,466.392L1228.16,466.804L1228.07,466.392ZM1227.94,465.776L1228.05,466.289C1227.98,465.942 1227.9,465.597 1227.82,465.253L1227.94,465.776ZM1227.58,464.191L1227.68,464.631L1227.58,464.191ZM1227.44,463.599L1227.56,464.122C1227.48,463.775 1227.39,463.43 1227.31,463.083L1227.44,463.599ZM1227.03,461.997L1227.15,462.478L1227.03,461.997ZM1226.87,461.42L1226.74,460.932L1227.02,461.975L1226.87,461.42ZM1226.59,460.412L1226.72,460.868L1226.59,460.412ZM1226.27,459.288L1226.29,459.357C1226.39,459.686 1226.48,460.016 1226.58,460.347L1226.27,459.288ZM1225.96,458.271L1226.11,458.749L1225.96,458.271ZM1225.61,457.179L1225.63,457.235C1225.74,457.567 1225.84,457.901 1225.95,458.236L1225.61,457.179ZM1224.73,454.595C1224.85,454.936 1224.97,455.278 1225.09,455.621C1225.21,455.964 1225.32,456.307 1225.44,456.652C1225.21,455.963 1224.97,455.277 1224.73,454.595ZM1219.23,442.295L1218.87,441.639L1219.07,442.003L1219.23,442.295L1219.43,442.667L1219.51,442.826L1219.66,443.097L1220.22,444.184L1220.28,444.297L1220.32,444.375L1220.5,444.742L1220.69,445.114L1220.74,445.226L1220.8,445.341L1220.92,445.598L1221.23,446.228L1221.39,446.559L1221.49,446.763L1221.59,446.996L1221.71,447.24L1221.87,447.604L1222.01,447.901L1222.09,448.082L1222.18,448.281L1222.34,448.635L1222.5,448.99L1222.58,449.191L1222.66,449.38L1222.82,449.734L1222.96,450.074L1223.04,450.254L1223.12,450.442L1223.25,450.779L1223.41,451.16L1223.56,451.524L1223.58,451.575L1223.59,451.607L1223.64,451.727L1223.76,452.043L1224,452.647L1224.13,452.998C1224.34,453.522 1224.53,454.048 1224.72,454.577C1224.53,454.048 1224.34,453.522 1224.13,452.998L1223.76,452.043L1223.59,451.607L1223.56,451.524L1223.25,450.779L1223.04,450.254L1222.82,449.734L1222.58,449.191L1222.34,448.635L1222.09,448.082L1221.87,447.604L1221.59,446.996L1221.39,446.559L1220.92,445.598L1220.74,445.226L1220.5,444.742L1220.28,444.297L1219.51,442.826L1219.23,442.295ZM1218.06,440.204L1218.09,440.249C1218.26,440.552 1218.43,440.856 1218.6,441.161L1218.06,440.204ZM1217.24,438.811L1217.52,439.268C1217.34,438.963 1217.15,438.659 1216.97,438.357L1217.24,438.811ZM1216.7,437.925L1216.95,438.319L1216.7,437.925ZM1216.42,437.47L1216.65,437.841L1216.42,437.47ZM1216.1,436.963L1216.38,437.402C1216.2,437.114 1216.02,436.828 1215.84,436.543L1216.1,436.963ZM1214.4,434.368L1214.54,434.573L1214.4,434.368ZM1213.2,432.662L1213.27,432.75L1213.2,432.662Z" style="fill:rgb(87,175,219);"/>
                    </g>
                </g>
                <g transform="matrix(0.9375,0,0,0.909091,-1679.5,-1075.64)">
                    <path d="M1916.84,1455.5C1920.55,1455.83 1924.28,1456 1928,1456C1931.72,1456 1935.45,1455.83 1939.16,1455.5L1937.48,1435.77C1934.33,1436.06 1931.16,1436.2 1928,1436.2C1924.84,1436.2 1921.67,1436.06 1918.52,1435.77L1916.84,1455.5Z" style="fill:none;stroke:rgb(87,175,219);stroke-width:8.66px;"/>
                </g>
                <g transform="matrix(0.9375,0,0,0.909091,-1679.5,-1075.64)">
                    <path d="M1894.87,1451.5C1905.68,1454.49 1916.81,1456 1928,1456C1939.19,1456 1950.32,1454.49 1961.13,1451.5L1956.16,1432.38C1946.98,1434.91 1937.51,1436.2 1928,1436.2C1918.49,1436.2 1909.03,1434.91 1899.84,1432.38L1894.87,1451.5Z" style="fill:none;stroke:rgb(87,175,219);stroke-width:8.66px;"/>
                </g>
                <g transform="matrix(0.9375,0,0,0.909091,-1679.5,-1075.64)">
                    <path d="M1873.9,1443.63C1890.85,1451.78 1909.31,1456 1928,1456C1946.69,1456 1965.15,1451.78 1982.1,1443.63L1973.98,1425.69C1959.58,1432.61 1943.89,1436.2 1928,1436.2C1912.11,1436.2 1896.42,1432.61 1882.02,1425.69L1873.9,1443.63Z" style="fill:none;stroke:rgb(87,175,219);stroke-width:8.66px;"/>
                </g>
            </g>
        </g>
    </g>
</svg>
